src/pos-icons/oci.svg

<svg height="24" viewBox="0 0 24 24" width="24" xmlns="http://www.w3.org/2000/svg"><path d="m2 2v20h20v-20m-2.88 17.03h-14.25v-14.03h14.26v14.03m-4.3-8.32h2.86v6.88h-2.86m0-11.18h2.86v2.86h-2.86m-8.53-2.86v11.18h7.1v-2.87h-4.23v-5.44h4.23v-2.87z"/></svg>

<?xml version="1.0" encoding="UTF-8"?><!DOCTYPE svg PUBLIC "-//W3C//DTD SVG 1.1//EN" "http://www.w3.org/Graphics/SVG/1.1/DTD/svg11.dtd"><svg xmlns="http://www.w3.org/2000/svg" xmlns:xlink="http://www.w3.org/1999/xlink" version="1.1" id="mdi-oci" width="24" height="24" viewBox="0 0 24 24"><path d="M2 2V22H22V2M19.12 19.03H4.87V5H19.13V19.03M14.83 10.71H17.69V17.59H14.83M14.83 6.41H17.69V9.27H14.83M6.3 6.41V17.59H13.4V14.72H9.17V9.28H13.4V6.41Z" /></svg>
